actions/22/view-refresh.svg

<?xml version="1.0" encoding="UTF-8" standalone="no"?>
<!-- Created with Inkscape (http://www.inkscape.org/) -->

<svg
   xmlns:svg="http://www.w3.org/2000/svg"
   xmlns="http://www.w3.org/2000/svg"
   xmlns:xlink="http://www.w3.org/1999/xlink"
   version="1.0"
   width="22"
   height="22"
   id="svg2449">
  <defs
     id="defs2451">
    <linearGradient
       id="linearGradient8838">
      <stop
         id="stop8840"
         style="stop-color:black;stop-opacity:1"
         offset="0" />
      <stop
         id="stop8842"
         style="stop-color:black;stop-opacity:0"
         offset="1" />
    </linearGradient>
    <radialGradient
       cx="62.625"
       cy="4.625"
       r="10.625"
       fx="62.625"
       fy="4.625"
       id="radialGradient2447"
       xlink:href="#linearGradient8838"
       gradientUnits="userSpaceOnUse"
       gradientTransform="matrix(1,0,0,0.341176,0,3.047059)" />
    <linearGradient
       id="linearGradient3533">
      <stop
         id="stop3535"
         style="stop-color:#b0cce6;stop-opacity:1"
         offset="0" />
      <stop
         id="stop3545"
         style="stop-color:#83acd5;stop-opacity:1"
         offset="1" />
    </linearGradient>
    <linearGradient
       x1="15.372947"
       y1="5.0471625"
       x2="15.372947"
       y2="22.599676"
       id="linearGradient2444"
       xlink:href="#linearGradient3533"
       gradientUnits="userSpaceOnUse"
       gradientTransform="matrix(0.4873978,0,0,0.4781595,-0.5049435,-0.2981014)" />
    <linearGradient
       id="linearGradient3266">
      <stop
         id="stop3268"
         style="stop-color:#538ec6;stop-opacity:1"
         offset="0" />
      <stop
         id="stop3270"
         style="stop-color:#3f84c5;stop-opacity:0"
         offset="1" />
    </linearGradient>
    <linearGradient
       x1="33.686768"
       y1="35.773647"
       x2="37.039948"
       y2="29.856804"
       id="linearGradient2441"
       xlink:href="#linearGradient3266"
       gradientUnits="userSpaceOnUse"
       gradientTransform="matrix(0.5107033,0,0,0.5010232,-0.6510026,-1.7483806)" />
    <linearGradient
       id="linearGradient3276">
      <stop
         id="stop3278"
         style="stop-color:#83acd5;stop-opacity:1"
         offset="0" />
      <stop
         id="stop3280"
         style="stop-color:#83acd5;stop-opacity:0"
         offset="1" />
    </linearGradient>
    <linearGradient
       x1="31.226292"
       y1="34.600941"
       x2="34.96563"
       y2="26.842505"
       id="linearGradient2439"
       xlink:href="#linearGradient3276"
       gradientUnits="userSpaceOnUse"
       gradientTransform="matrix(0.5107033,0,0,0.5010232,-0.6510026,-1.7483806)" />
    <linearGradient
       id="linearGradient4873">
      <stop
         id="stop4875"
         style="stop-color:white;stop-opacity:1"
         offset="0" />
      <stop
         id="stop4877"
         style="stop-color:white;stop-opacity:0"
         offset="1" />
    </linearGradient>
    <linearGradient
       x1="21.628975"
       y1="2.1102102"
       x2="22.245434"
       y2="43.366352"
       id="linearGradient2436"
       xlink:href="#linearGradient4873"
       gradientUnits="userSpaceOnUse"
       gradientTransform="matrix(0.4873978,0,0,0.4781595,-0.5049435,-0.2981014)" />
    <linearGradient
       id="linearGradient3319">
      <stop
         id="stop3321"
         style="stop-color:white;stop-opacity:0"
         offset="0" />
      <stop
         id="stop3323"
         style="stop-color:white;stop-opacity:0.14383562"
         offset="0.57424062" />
      <stop
         id="stop3325"
         style="stop-color:white;stop-opacity:0"
         offset="1" />
    </linearGradient>
    <linearGradient
       x1="33.386703"
       y1="41.887085"
       x2="39.686337"
       y2="28.50532"
       id="linearGradient2433"
       xlink:href="#linearGradient3319"
       gradientUnits="userSpaceOnUse"
       gradientTransform="matrix(0.4873978,0,0,0.4781595,-0.5049435,-0.2981014)" />
  </defs>
  <g
     id="layer1">
    <path
       d="m 73.25,4.625 a 10.625,3.625 0 1 1 -21.25,0 10.625,3.625 0 1 1 21.25,0 z"
       transform="matrix(1.0352941,0,0,1.2906765,-53.835293,11.353106)"
       id="path8836"
       style="opacity:0.56043958;fill:url(#radialGradient2447);fill-opacity:1;fill-rule:evenodd;stroke:none;stroke-width:0.99999988;marker:none;visibility:visible;display:inline;overflow:visible" />
    <path
       d="m 11.600003,15.001187 c -2.4998681,-0.02699 -4.6000001,-2.165375 -4.6000001,-4.60715 0,-2.1013772 2.358504,-4.3928502 4.6453891,-4.3928502 1.207326,0 2.376964,0.271709 3.244024,1.0922818 l -2.389413,2.4077182 9,0 c 0,0 0,-9 0,-9 L 18.664607,3.3167283 C 16.770803,1.4910029 14.581664,0.534357 11.786649,0.5041758 6.1007043,0.4427779 1.565887,4.9868219 1.5030239,10.540276 c -0.062863,5.553455 4.4110326,9.897139 10.0969791,9.958537"
       id="path3372"
       style="fill:url(#linearGradient2444);fill-opacity:1;stroke:#538ec6;stroke-width:1.00474763;stroke-linecap:butt;stroke-linejoin:round;stroke-miterlimit:4;stroke-opacity:1;stroke-dasharray:none" />
    <path
       d="m 11.400003,20.497883 c 4.754708,0.05134 10.212045,-3.552802 10.203489,-9.782868 l -5.035091,-0.03845 c -0.0927,2.541424 -2.910875,4.419262 -5.168398,4.324624"
       id="path3453"
       style="fill:url(#linearGradient2439);fill-opacity:1;stroke:url(#linearGradient2441);stroke-width:1.00474763;stroke-linecap:butt;stroke-linejoin:miter;stroke-miterlimit:4;stroke-opacity:1;stroke-dasharray:none" />
    <path
       d="M 11.396704,16.001187 C 8.6270808,15.961463 6.002916,13.586174 6.0000029,10.438978 5.9975168,7.7352648 8.9037897,4.9614627 11.673413,5.0011868 c 1.365148,0.01958 3.04821,0.2516992 4.758717,1.8613524 l -1.567176,1.6386476 5.635049,0 c 0,0 0,-5.6224624 0,-5.6224624 l -2.01975,1.7920482 C 16.67133,2.6912802 14.531432,1.5011868 11.701794,1.5011868 c -5.1994522,0 -9.2017911,4.2944143 -9.2017911,9.0925902 0,5.685767 4.6931282,8.90741 9.1504111,8.90741"
       id="path3370"
       style="opacity:0.4;fill:none;stroke:url(#linearGradient2436);stroke-width:1.00474763;stroke-linecap:butt;stroke-linejoin:miter;stroke-miterlimit:4;stroke-opacity:1;stroke-dasharray:none" />
    <path
       d="m 11.465388,19.879824 c 3.209952,0 9.034615,-3.092201 9.034615,-9.149127 l -3.052137,-0.103356 c 0,2.869327 -2.455358,5.373846 -6.234573,5.373846"
       id="path2557"
       style="fill:none;stroke:url(#linearGradient2433);stroke-width:1.00474763;stroke-linecap:butt;stroke-linejoin:round;stroke-miterlimit:4;stroke-opacity:1;stroke-dasharray:none" />
    <rect
       width="3.7087033"
       height="2.3872113"
       x="9.6998253"
       y="16.544703"
       id="rect3290"
       style="fill:#83acd5;fill-opacity:1;stroke:none" />
  </g>
</svg>

<?xml version="1.0" encoding="UTF-8" standalone="no"?>
<!-- Created with Inkscape (http://www.inkscape.org/) -->
<svg
   xmlns:dc="http://purl.org/dc/elements/1.1/"
   xmlns:cc="http://creativecommons.org/ns#"
   xmlns:rdf="http://www.w3.org/1999/02/22-rdf-syntax-ns#"
   xmlns:svg="http://www.w3.org/2000/svg"
   xmlns="http://www.w3.org/2000/svg"
   xmlns:xlink="http://www.w3.org/1999/xlink"
   xmlns:sodipodi="http://sodipodi.sourceforge.net/DTD/sodipodi-0.dtd"
   xmlns:inkscape="http://www.inkscape.org/namespaces/inkscape"
   width="22"
   height="22"
   id="svg2449"
   sodipodi:version="0.32"
   inkscape:version="0.46"
   version="1.0"
   sodipodi:docname="view-refresh.svg"
   inkscape:output_extension="org.inkscape.output.svg.inkscape">
  <defs
     id="defs2451">
    <linearGradient
       inkscape:collect="always"
       id="linearGradient8838">
      <stop
         style="stop-color:#000000;stop-opacity:1;"
         offset="0"
         id="stop8840" />
      <stop
         style="stop-color:#000000;stop-opacity:0;"
         offset="1"
         id="stop8842" />
    </linearGradient>
    <radialGradient
       inkscape:collect="always"
       xlink:href="#linearGradient8838"
       id="radialGradient2447"
       gradientUnits="userSpaceOnUse"
       gradientTransform="matrix(1,0,0,0.341176,0,3.047059)"
       cx="62.625"
       cy="4.625"
       fx="62.625"
       fy="4.625"
       r="10.625" />
    <linearGradient
       id="linearGradient3533">
      <stop
         id="stop3535"
         style="stop-color:#b0cce6;stop-opacity:1;"
         offset="0" />
      <stop
         id="stop3545"
         style="stop-color:#83acd5;stop-opacity:1;"
         offset="1" />
    </linearGradient>
    <linearGradient
       inkscape:collect="always"
       xlink:href="#linearGradient3533"
       id="linearGradient2444"
       gradientUnits="userSpaceOnUse"
       gradientTransform="matrix(0.4873978,0,0,0.4781595,-0.5049435,-0.2981014)"
       x1="15.372947"
       y1="5.0471625"
       x2="15.372947"
       y2="22.599676" />
    <linearGradient
       id="linearGradient3266">
      <stop
         style="stop-color:#538ec6;stop-opacity:1"
         offset="0"
         id="stop3268" />
      <stop
         style="stop-color:#3f84c5;stop-opacity:0"
         offset="1"
         id="stop3270" />
    </linearGradient>
    <linearGradient
       inkscape:collect="always"
       xlink:href="#linearGradient3266"
       id="linearGradient2441"
       gradientUnits="userSpaceOnUse"
       gradientTransform="matrix(0.5107033,0,0,0.5010232,-0.6510026,-1.7483806)"
       x1="33.686768"
       y1="35.773647"
       x2="37.039948"
       y2="29.856804" />
    <linearGradient
       inkscape:collect="always"
       id="linearGradient3276">
      <stop
         style="stop-color:#83acd5;stop-opacity:1;"
         offset="0"
         id="stop3278" />
      <stop
         style="stop-color:#83acd5;stop-opacity:0;"
         offset="1"
         id="stop3280" />
    </linearGradient>
    <linearGradient
       inkscape:collect="always"
       xlink:href="#linearGradient3276"
       id="linearGradient2439"
       gradientUnits="userSpaceOnUse"
       gradientTransform="matrix(0.5107033,0,0,0.5010232,-0.6510026,-1.7483806)"
       x1="31.226292"
       y1="34.600941"
       x2="34.96563"
       y2="26.842505" />
    <linearGradient
       id="linearGradient4873"
       inkscape:collect="always">
      <stop
         id="stop4875"
         offset="0"
         style="stop-color:#ffffff;stop-opacity:1;" />
      <stop
         id="stop4877"
         offset="1"
         style="stop-color:#ffffff;stop-opacity:0;" />
    </linearGradient>
    <linearGradient
       inkscape:collect="always"
       xlink:href="#linearGradient4873"
       id="linearGradient2436"
       gradientUnits="userSpaceOnUse"
       gradientTransform="matrix(0.4873978,0,0,0.4781595,-0.5049435,-0.2981014)"
       x1="21.628975"
       y1="2.1102102"
       x2="22.245434"
       y2="43.366352" />
    <linearGradient
       id="linearGradient3319">
      <stop
         style="stop-color:#ffffff;stop-opacity:0;"
         offset="0"
         id="stop3321" />
      <stop
         id="stop3323"
         offset="0.57424062"
         style="stop-color:#ffffff;stop-opacity:0.14383562;" />
      <stop
         style="stop-color:#ffffff;stop-opacity:0;"
         offset="1"
         id="stop3325" />
    </linearGradient>
    <linearGradient
       inkscape:collect="always"
       xlink:href="#linearGradient3319"
       id="linearGradient2433"
       gradientUnits="userSpaceOnUse"
       gradientTransform="matrix(0.4873978,0,0,0.4781595,-0.5049435,-0.2981014)"
       x1="33.386703"
       y1="41.887085"
       x2="39.686337"
       y2="28.50532" />
  </defs>
  <sodipodi:namedview
     id="base"
     pagecolor="#ffffff"
     bordercolor="#666666"
     borderopacity="1.0"
     inkscape:pageopacity="0.0"
     inkscape:pageshadow="2"
     inkscape:zoom="11.197802"
     inkscape:cx="16"
     inkscape:cy="16"
     inkscape:current-layer="layer1"
     showgrid="true"
     inkscape:grid-bbox="true"
     inkscape:document-units="px"
     inkscape:window-width="640"
     inkscape:window-height="720"
     inkscape:window-x="0"
     inkscape:window-y="91" />
  <metadata
     id="metadata2454">
    <rdf:RDF>
      <cc:Work
         rdf:about="">
        <dc:format>image/svg+xml</dc:format>
        <dc:type
           rdf:resource="http://purl.org/dc/dcmitype/StillImage" />
      </cc:Work>
    </rdf:RDF>
  </metadata>
  <g
     id="layer1"
     inkscape:label="Layer 1"
     inkscape:groupmode="layer">
    <path
       transform="matrix(1.0352941,0,0,1.2906765,-53.835293,11.353106)"
       d="M 73.25,4.625 A 10.625,3.625 0 1 1 52,4.625 A 10.625,3.625 0 1 1 73.25,4.625 z"
       sodipodi:ry="3.625"
       sodipodi:rx="10.625"
       sodipodi:cy="4.625"
       sodipodi:cx="62.625"
       id="path8836"
       style="opacity:0.56043958000000005;fill:url(#radialGradient2447);fill-opacity:1;fill-rule:evenodd;stroke:none;stroke-width:0.99999987999999995;stroke-linecap:butt;stroke-linejoin:round;marker:none;marker-start:none;marker-mid:none;marker-end:none;stroke-miterlimit:4;stroke-dasharray:none;stroke-dashoffset:0;stroke-opacity:1;visibility:visible;display:inline;overflow:visible"
       sodipodi:type="arc" />
    <path
       id="path3372"
       style="fill:url(#linearGradient2444);fill-opacity:1;stroke:#538ec6;stroke-width:1.00474763000000000;stroke-linecap:butt;stroke-linejoin:round;stroke-miterlimit:4;stroke-dasharray:none;stroke-opacity:1"
       d="M 11.600003,15.001187 C 9.1001349,14.974195 7.0000029,12.835812 7.0000029,10.394037 C 7.0000029,8.2926598 9.3585069,6.0011868 11.645392,6.0011868 C 12.852718,6.0011868 14.022356,6.2728958 14.889416,7.0934686 L 12.500003,9.5011868 L 21.500003,9.5011868 C 21.500003,9.5011868 21.500003,0.5011868 21.500003,0.5011868 L 18.664607,3.3167283 C 16.770803,1.4910029 14.581664,0.534357 11.786649,0.5041758 C 6.1007043,0.4427779 1.565887,4.9868219 1.5030239,10.540276 C 1.4401609,16.093731 5.9140565,20.437415 11.600003,20.498813"
       sodipodi:nodetypes="csscccccssc" />
    <path
       id="path3453"
       style="fill:url(#linearGradient2439);fill-opacity:1;stroke:url(#linearGradient2441);stroke-width:1.00474763000000000;stroke-linecap:butt;stroke-linejoin:miter;stroke-miterlimit:4;stroke-dasharray:none;stroke-opacity:1"
       d="M 11.400003,20.497883 C 16.154711,20.549224 21.612048,16.945081 21.603492,10.715015 L 16.568401,10.676563 C 16.475705,13.217987 13.657526,15.095825 11.400003,15.001187"
       sodipodi:nodetypes="cccc" />
    <path
       id="path3370"
       style="opacity:0.40000000000000002;fill:none;fill-opacity:1;stroke:url(#linearGradient2436);stroke-width:1.00474763000000000;stroke-linecap:butt;stroke-linejoin:miter;stroke-miterlimit:4;stroke-dasharray:none;stroke-opacity:1"
       d="M 11.396704,16.001187 C 8.6270808,15.961463 6.002916,13.586174 6.0000029,10.438978 C 5.9975168,7.7352648 8.9037897,4.9614627 11.673413,5.0011868 C 13.038561,5.0207669 14.721623,5.252886 16.43213,6.8625392 L 14.864954,8.5011868 L 20.500003,8.5011868 C 20.500003,8.5011868 20.500003,2.8787244 20.500003,2.8787244 L 18.480253,4.6707726 C 16.67133,2.6912802 14.531432,1.5011868 11.701794,1.5011868 C 6.5023418,1.5011868 2.5000029,5.7956011 2.5000029,10.593777 C 2.5000029,16.279544 7.1931311,19.501187 11.650414,19.501187"
       sodipodi:nodetypes="csscccccscc" />
    <path
       id="path2557"
       style="fill:none;fill-opacity:1;stroke:url(#linearGradient2433);stroke-width:1.00474763000000000;stroke-linecap:butt;stroke-linejoin:round;stroke-miterlimit:4;stroke-dasharray:none;stroke-opacity:1"
       d="M 11.465388,19.879824 C 14.67534,19.879824 20.500003,16.787623 20.500003,10.730697 L 17.447866,10.627341 C 17.447866,13.496668 14.992508,16.001187 11.213293,16.001187"
       sodipodi:nodetypes="cccc" />
    <rect
       style="fill:#83acd5;fill-opacity:1;stroke:none;stroke-width:1;stroke-linecap:butt;stroke-linejoin:miter;stroke-miterlimit:4;stroke-dasharray:none;stroke-dashoffset:0;stroke-opacity:1"
       id="rect3290"
       width="3.7087033"
       height="2.3872113"
       x="9.6998253"
       y="16.544703" />
  </g>
</svg>
